packages/kaspersky-hexa-ui-icons/src/iconsSVGs/32/Endpoint.svg

<svg width="32" height="32" viewBox="0 0 32 32" fill="none" xmlns="http://www.w3.org/2000/svg">
<path fill-rule="evenodd" clip-rule="evenodd" d="M13 3C11.8954 3 11 3.89543 11 5V10C11 11.1046 11.8954 12 13 12H15L15 16H8C7.44772 16 7 16.4477 7 17V23.0858L6.20711 22.2929C5.81658 21.9024 5.18342 21.9024 4.79289 22.2929C4.40237 22.6834 4.40237 23.3166 4.79289 23.7071L6.58579 25.5L4.79289 27.2929C4.40237 27.6834 4.40237 28.3166 4.79289 28.7071C5.18342 29.0976 5.81658 29.0976 6.20711 28.7071L8 26.9142L9.79289 28.7071C10.1834 29.0976 10.8166 29.0976 11.2071 28.7071C11.5976 28.3166 11.5976 27.6834 11.2071 27.2929L9.41421 25.5L11.2071 23.7071C11.5976 23.3166 11.5976 22.6834 11.2071 22.2929C10.8166 21.9024 10.1834 21.9024 9.79289 22.2929L9 23.0858V18H23V21.126C21.2748 21.5701 20 23.1362 20 25C20 27.2091 21.7909 29 24 29C26.2091 29 28 27.2091 28 25C28 23.1362 26.7252 21.5701 25 21.126V17C25 16.4477 24.5523 16 24 16H17L17 12H19C20.1046 12 21 11.1046 21 10V5C21 3.89543 20.1046 3 19 3H13ZM19 10H13V5H19V10ZM26 25C26 26.1046 25.1046 27 24 27C22.8954 27 22 26.1046 22 25C22 23.8954 22.8954 23 24 23C25.1046 23 26 23.8954 26 25Z" fill="black"/>
</svg>

<svg xmlns="http://www.w3.org/2000/svg" width="32" height="32" fill="none" viewBox="0 0 32 32"><path fill="#000" fill-rule="evenodd" d="M13 3c-1.1046 0-2 .8954-2 2v5c0 1.1046.8954 2 2 2h2v4H8c-.5523 0-1 .4477-1 1v6.0858l-.7929-.7929c-.3905-.3905-1.0237-.3905-1.4142 0s-.3905 1.0237 0 1.4142L6.5858 25.5l-1.793 1.7929c-.3904.3905-.3904 1.0237 0 1.4142.3906.3905 1.0238.3905 1.4143 0L8 26.9142l1.7929 1.7929c.3905.3905 1.0237.3905 1.4142 0s.3905-1.0237 0-1.4142L9.4142 25.5l1.7929-1.7929c.3905-.3905.3905-1.0237 0-1.4142s-1.0237-.3905-1.4142 0L9 23.0858V18h14v3.126c-1.7252.4441-3 2.0102-3 3.874 0 2.2091 1.7909 4 4 4s4-1.7909 4-4c0-1.8638-1.2748-3.4299-3-3.874V17c0-.5523-.4477-1-1-1h-7v-4h2c1.1046 0 2-.8954 2-2V5c0-1.1046-.8954-2-2-2zm6 7h-6V5h6zm7 15c0 1.1046-.8954 2-2 2s-2-.8954-2-2 .8954-2 2-2 2 .8954 2 2"/></svg>
